packages/icons/general/EncryptedFile.svg

<svg width="16" height="16" viewBox="0 0 16 16" xmlns="http://www.w3.org/2000/svg">
<g>
        <path
            opacity="0.5"
            d="M3 4.3125C3 3.20793 3.89543 2.3125 5 2.3125H11C12.1046 2.3125 13 3.20793 13 4.3125V12.3125C13 13.4171 12.1046 14.3125 11 14.3125H5C3.89543 14.3125 3 13.4171 3 12.3125V4.3125Z"
            fill="#AFC3E1"
        />
        <path
            opacity="0.1"
            d="M13 6.79688V4.3125C13 3.20793 12.1046 2.3125 11 2.3125H8.51562L13 6.79688Z"
            fill="#AFC3E1"
        />
        <path
            d="M8.51563 2.3125L8.51563 4.79687C8.51563 5.90144 9.41106 6.79687 10.5156 6.79687L13 6.79688L8.51563 2.3125Z"
            fill="#AFC3E1"
        />
        <path
            fill-rule="evenodd"
            clip-rule="evenodd"
            d="M8.68078 7.60924C8.4968 7.40482 8.25193 7.29447 8.00152 7.29447C7.7511 7.29447 7.50623 7.40482 7.32226 7.60924C7.13767 7.81433 7.03096 8.09649 7.03096 8.39443V9.2356H8.97207V8.39443C8.97207 8.09649 8.86536 7.81433 8.68078 7.60924ZM9.36029 9.2356V8.39443C9.36029 8.00596 9.22159 7.62981 8.96934 7.34953C8.71648 7.06858 8.36888 6.90625 8.00152 6.90625C7.63415 6.90625 7.28655 7.06858 7.03369 7.34953C6.78144 7.62981 6.64274 8.00596 6.64274 8.39443V9.2356H6.49072C6.14865 9.2356 5.86525 9.50877 5.86525 9.85322V11.3355C5.86525 11.68 6.14865 11.9531 6.49072 11.9531H9.51021C9.85228 11.9531 10.1357 11.68 10.1357 11.3355V9.85322C10.1357 9.50877 9.85228 9.2356 9.51021 9.2356H9.36029ZM9.74746 9.85322C9.74746 9.72987 9.64461 9.62382 9.51021 9.62382H6.49072C6.35632 9.62382 6.25347 9.72987 6.25347 9.85322V11.3355C6.25347 11.4589 6.35632 11.5649 6.49072 11.5649H9.51021C9.64461 11.5649 9.74746 11.4589 9.74746 11.3355V9.85322Z"
            fill="white"
        />
    </g>
</svg>

<svg xmlns="http://www.w3.org/2000/svg" viewBox="0 0 16 16">
    <path fill="#AFC3E1" d="M3 4.313a2 2 0 0 1 2-2h6a2 2 0 0 1 2 2v8a2 2 0 0 1-2 2H5a2 2 0 0 1-2-2v-8Z" opacity=".5"/>
    <path fill="#AFC3E1" d="M13 6.797V4.313a2 2 0 0 0-2-2H8.516L13 6.796Z" opacity=".1"/>
    <path fill="#AFC3E1" d="M8.516 2.313v2.484a2 2 0 0 0 2 2H13L8.516 2.313Z"/>
    <path fill="#fff" fill-rule="evenodd" d="M8.68 7.61a.915.915 0 0 0-.678-.316c-.25 0-.496.11-.68.315a1.177 1.177 0 0 0-.291.785v.842h1.941v-.842c0-.298-.107-.58-.291-.785Zm.68 1.626v-.842c0-.388-.138-.764-.39-1.044a1.306 1.306 0 0 0-.968-.444c-.368 0-.715.163-.968.444-.253.28-.391.656-.391 1.044v.842H6.49a.622.622 0 0 0-.626.617v1.482c0 .345.284.618.626.618h3.02a.622.622 0 0 0 .625-.617V9.852a.622.622 0 0 0-.626-.617h-.15Zm.387.617a.233.233 0 0 0-.237-.23H6.49a.233.233 0 0 0-.237.23v1.482c0 .124.103.23.238.23h3.02a.233.233 0 0 0 .236-.23V9.854Z" clip-rule="evenodd"/>
</svg>
